X:1
T:Just a Closer Walk with Thee
T:Text: Anonymous Tune: Anonymous
T:Irregular CLOSER WALK www.hymnary.org/text/i_am_weak_but_thou_art_strong
T:Just a Closer Walk with Thee
T:This hymn is in the public domain.  You may freely use this score for personal and congregational worship.  If you reproduce the score, please credit Hymnary.org as the source. 
T:This hymn is in the public domain.  You may freely use this score for personal and congregational worship.  If you reproduce the score, please credit Hymnary.org as the source. 
Z:This hymn is in the public domain.  You may freely use this score for personal and congregational worship.  If you reproduce the score, please credit Hymnary.org as the source.
%%score ( 1 2 ) ( 3 4 )
L:1/8
M:4/4
K:Bb
V:1 treble nm="Piano" snm="Pno."
V:2 treble 
V:3 bass nm="Piano" snm="Pno."
V:4 bass 
V:1
 [DF]3 [D^F] [DG][B,D][B,=F][B,=E] | _E8 | [Ec]3 [EB] AF[EG][EB] | (GF- F6) | %4
w: 3~When my fee- ble life is|o’er,|time for me will be no|more; _ _|
w: 1~I am weak, but thou art|strong;|Je- sus, keep me from all|wrong; _ _|
w: 2~Through this world of toil and|snares,|if I fal- ter, Lord, who|cares? _ _|
 [Fd]3 [Fd] [Fd][DB][Ec][Fd] | (cB- B4) [^CB][CG] | %6
w: guide me gent- ly, safe- ly|o’er _ _ to thy|
w: I’ll be sa- tis- fied as|long _ _ as I|
w: Who with me my bur- den|shares? _ _ None but|
 [DF]2 [DF]-[DF] F2 [EG]"^D.C. for Refrain"[EA] | [DB]8 |] %8
w: king- dom _ shore, to thy|shore.|
w: walk, let me walk close to|thee.|
w: thee, dear _ Lord, none but|thee.|
V:2
 x8 | (B,4 C4) | x4 EE x2 | D8 | x8 | (E4 ^C2) x2 | x4 E2 x2 | x8 |] %8
V:3
 [B,,B,]3 [B,,B,] [B,,B,][B,,F,][D,F,][_D,G,] | (([C,G,]4 [F,A,]4)) | %2
 [F,A,]3 [F,B,] [F,C][F,A,]A,G, | [B,,B,]8 | [B,,B,]3 [B,,A,] [B,,_A,][B,,A,][B,,A,][B,,A,] | %5
 G,6 [=E,G,][E,B,] | [F,B,]2 [F,B,]-[F,B,] [F,A,]2 G,F, | [B,,F,]8 |] %8
V:4
 x8 | x8 | x6 F,F, | x8 | x8 | (E,4 =E,2) x2 | x6 F,F, | x8 |] %8

